X:466
T:Untitled RH.466
R:jig
S:Rev.R.Harrison's MS,c1815,Cumbria
O:England
A:Temple Sowerby,Cumbria
Z:vmp.Simon Wilson. Review PJH, 2008.
M:6/8
L:1/8
Q:3/8=100
K:G
d/c/|BGG GBG|BGG d2B|ccc AcA|cAB d2|!
d|dgg gde|fff e2e/f/|gfe dcB|\
GAB c3|d3 e3|dDF G2:|

